src/images/logo.svg

<svg width="90" height="31" viewBox="0 0 90 31" fill="none" xmlns="http://www.w3.org/2000/svg">
<rect x="6" y="5" width="33" height="26" rx="8" fill="#FB7C2F"/>
<rect width="33" height="26" rx="8" fill="#FB7C2F" fill-opacity="0.2"/>
<path fill-rule="evenodd" clip-rule="evenodd" d="M23.1335 20.5701L24.419 19.1596L27.1865 23.9982H30.9003L26.508 16.7492L30.9003 11H27.0258L24.2226 15.0798L23.1335 16.7314V11H20V23.9982H23.1335V20.5701ZM37.712 23.1323C37.7953 23.5132 37.8906 23.8018 37.9977 23.9982H41.0062V23.8465C40.7444 23.3763 40.6075 22.6978 40.5956 21.811V17.5348C40.5777 16.4874 40.2117 15.6631 39.4975 15.062C38.7833 14.4608 37.8102 14.1603 36.5782 14.1603C35.3463 14.1603 34.3315 14.4519 33.534 15.0352C32.7425 15.6184 32.3467 16.3772 32.3467 17.3116H35.3552C35.3552 16.6094 35.7123 16.2582 36.4265 16.2582C37.1942 16.2582 37.5781 16.7016 37.5781 17.5884V18.0973H36.6497C35.1737 18.0973 34.0488 18.3651 33.2751 18.9007C32.5014 19.4364 32.1146 20.2279 32.1146 21.2754C32.1146 22.1086 32.433 22.802 33.0698 23.3555C33.7066 23.903 34.4803 24.1768 35.3909 24.1768C36.3848 24.1768 37.1585 23.8286 37.712 23.1323ZM37.0425 21.7932C36.7985 21.9539 36.489 22.0342 36.114 22.0342C35.8283 22.0342 35.5933 21.9509 35.4088 21.7843C35.2243 21.6117 35.132 21.3885 35.132 21.1147C35.132 20.1744 35.6558 19.7042 36.7032 19.7042H37.5781V21.2486C37.471 21.451 37.2924 21.6325 37.0425 21.7932ZM51.237 19.24C51.237 20.7398 50.8977 21.939 50.2193 22.8377C49.5467 23.7304 48.6361 24.1768 47.4875 24.1768C46.6007 24.1768 45.8716 23.8524 45.3003 23.2037V27.712H42.2918V14.3388H45.1039L45.1932 15.2316C45.7705 14.5174 46.5293 14.1603 47.4696 14.1603C48.6599 14.1603 49.5854 14.6007 50.246 15.4815C50.9067 16.3564 51.237 17.5616 51.237 19.0971V19.24ZM48.2285 19.0525C48.2285 17.3384 47.7285 16.4814 46.7287 16.4814C46.0145 16.4814 45.5383 16.7373 45.3003 17.2492V21.0522C45.5622 21.5879 46.0442 21.8557 46.7465 21.8557C47.7047 21.8557 48.1987 21.0284 48.2285 19.3739V19.0525ZM56.7453 24.1768C57.8285 24.1768 58.6885 23.7691 59.3253 22.9537L59.4146 23.9982H62.2356V14.3388H59.2093V21.1147C58.9176 21.6087 58.4266 21.8557 57.7362 21.8557C56.9328 21.8557 56.531 21.442 56.531 20.6148V14.3388H53.5225V20.5969C53.5225 21.7515 53.7933 22.6383 54.3349 23.2573C54.8825 23.8703 55.6859 24.1768 56.7453 24.1768ZM68.949 21.2843C68.949 21.0284 68.8151 20.8231 68.5473 20.6683C68.2794 20.5136 67.7706 20.3529 67.0207 20.1863C66.2708 20.0196 65.6518 19.8024 65.1638 19.5346C64.6758 19.2608 64.3038 18.9305 64.0479 18.5436C63.792 18.1568 63.664 17.7134 63.664 17.2134C63.664 16.3267 64.03 15.5976 64.7621 15.0262C65.3768 14.5415 66.1509 14.2603 67.0845 14.1825V11.9887H68.5185V14.2111C69.3917 14.3171 70.1215 14.5888 70.7077 15.0262C71.4814 15.6035 71.8683 16.3624 71.8683 17.3027H68.8508C68.8508 16.529 68.4431 16.1422 67.6278 16.1422C67.3123 16.1422 67.0475 16.2314 66.8332 16.41C66.619 16.5826 66.5118 16.7998 66.5118 17.0617C66.5118 17.3295 66.6428 17.5467 66.9046 17.7134C67.1665 17.88 67.5831 18.0169 68.1545 18.124C68.7318 18.2312 69.2377 18.3591 69.6721 18.5079C71.1243 19.0078 71.8504 19.9036 71.8504 21.195C71.8504 22.0759 71.4576 22.793 70.672 23.3465C70.0855 23.7629 69.3676 24.0227 68.5185 24.1258V26.3284H67.0845V24.1536C66.4774 24.1012 65.9234 23.9601 65.4227 23.7304C64.774 23.4328 64.2681 23.0281 63.905 22.5163C63.542 22.0045 63.3605 21.4658 63.3605 20.9004H66.1726C66.1845 21.3468 66.3333 21.6742 66.619 21.8825C66.9046 22.0848 67.2707 22.186 67.717 22.186C68.1277 22.186 68.4342 22.1027 68.6365 21.936C68.8449 21.7694 68.949 21.5521 68.949 21.2843ZM77.7694 14.3388V11.9374H74.7609V14.3388H73.5289V16.4278H74.7609V21.2218C74.7609 22.2157 75.0078 22.9567 75.5018 23.4447C75.9958 23.9328 76.7606 24.1768 77.7962 24.1768C78.3854 24.1768 78.9508 24.0905 79.4924 23.9179V21.7664C79.29 21.8021 79.04 21.82 78.7425 21.82C78.3556 21.82 78.0967 21.7485 77.9658 21.6057C77.8348 21.4629 77.7694 21.2099 77.7694 20.8469V16.4278H79.3584V14.3388H77.7694ZM86.9915 23.9982C86.8843 23.8018 86.7891 23.5132 86.7058 23.1323C86.1523 23.8286 85.3786 24.1768 84.3847 24.1768C83.4741 24.1768 82.7004 23.903 82.0636 23.3555C81.4268 22.802 81.1083 22.1086 81.1083 21.2754C81.1083 20.2279 81.4952 19.4364 82.2689 18.9007C83.0426 18.3651 84.1675 18.0973 85.6434 18.0973H86.5719V17.5884C86.5719 16.7016 86.188 16.2582 85.4203 16.2582C84.7061 16.2582 84.349 16.6094 84.349 17.3116H81.3405C81.3405 16.3772 81.7362 15.6184 82.5278 15.0352C83.3253 14.4519 84.34 14.1603 85.572 14.1603C86.804 14.1603 87.7771 14.4608 88.4913 15.062C89.2055 15.6631 89.5715 16.4874 89.5893 17.5348V21.811C89.6012 22.6978 89.7381 23.3763 90 23.8465V23.9982H86.9915ZM85.1078 22.0342C85.4827 22.0342 85.7922 21.9539 86.0362 21.7932C86.2862 21.6325 86.4648 21.451 86.5719 21.2486V19.7042H85.697C84.6495 19.7042 84.1258 20.1744 84.1258 21.1147C84.1258 21.3885 84.218 21.6117 84.4025 21.7843C84.587 21.9509 84.8221 22.0342 85.1078 22.0342Z" fill="black"/>
</svg>

<svg fill="none" xmlns="http://www.w3.org/2000/svg" viewBox="0 0 90 31"><rect x="6" y="5" width="33" height="26" rx="8" fill="#FB7C2F"/><rect width="33" height="26" rx="8" fill="#FB7C2F" fill-opacity=".2"/><path fill-rule="evenodd" clip-rule="evenodd" d="m23.134 20.57 1.285-1.41 2.767 4.838H30.9l-4.392-7.249L30.9 11h-3.874l-2.803 4.08-1.09 1.651V11H20v12.998h3.134V20.57Zm14.578 2.562c.083.381.179.67.286.866h3.008v-.152c-.262-.47-.398-1.148-.41-2.035v-4.276c-.018-1.048-.384-1.872-1.098-2.473-.715-.601-1.688-.902-2.92-.902s-2.247.292-3.044.875c-.791.583-1.187 1.342-1.187 2.277h3.008c0-.703.357-1.054 1.072-1.054.767 0 1.151.444 1.151 1.33v.51h-.928c-1.476 0-2.601.267-3.375.803-.774.535-1.16 1.327-1.16 2.374 0 .834.318 1.527.955 2.08.637.548 1.41.822 2.32.822.995 0 1.768-.348 2.322-1.045Zm-.67-1.339c-.244.16-.553.241-.928.241-.286 0-.52-.083-.705-.25a.875.875 0 0 1-.277-.67c0-.94.524-1.41 1.571-1.41h.875v1.545c-.107.202-.286.384-.536.544Zm14.195-2.553c0 1.5-.34 2.699-1.018 3.598-.672.892-1.583 1.339-2.732 1.339-.886 0-1.615-.325-2.187-.973v4.508h-3.008V14.339h2.812l.09.893c.576-.715 1.335-1.072 2.276-1.072 1.19 0 2.115.44 2.776 1.322.66.874.991 2.08.991 3.615v.143Zm-3.009-.188c0-1.714-.5-2.57-1.5-2.57-.714 0-1.19.255-1.428.767v3.803c.262.536.744.804 1.447.804.958 0 1.452-.828 1.481-2.482v-.322Zm8.517 5.125c1.084 0 1.944-.408 2.58-1.223l.09 1.044h2.82v-9.66H59.21v6.777c-.291.494-.782.74-1.473.74-.803 0-1.205-.413-1.205-1.24v-6.276h-3.008v6.258c0 1.154.27 2.041.812 2.66.547.613 1.35.92 2.41.92Zm12.204-2.893c0-.256-.134-.46-.402-.616-.268-.154-.776-.315-1.526-.482-.75-.166-1.37-.384-1.857-.651-.488-.274-.86-.605-1.116-.991a2.356 2.356 0 0 1-.384-1.33c0-.887.366-1.616 1.098-2.188.615-.485 1.389-.766 2.323-.844V11.99h1.434v2.222c.873.106 1.602.378 2.189.815.773.578 1.16 1.336 1.16 2.277h-3.017c0-.774-.408-1.16-1.223-1.16a1.2 1.2 0 0 0-.795.267.803.803 0 0 0-.321.652c0 .267.13.485.393.651.261.167.678.304 1.25.411a10.81 10.81 0 0 1 1.517.384c1.452.5 2.178 1.396 2.178 2.687 0 .88-.392 1.598-1.178 2.151-.587.417-1.304.677-2.153.78v2.202h-1.434v-2.174a4.983 4.983 0 0 1-1.662-.424c-.649-.297-1.155-.702-1.518-1.214-.363-.511-.544-1.05-.544-1.616h2.812c.011.447.16.774.446.983.286.202.652.303 1.098.303.41 0 .717-.083.92-.25a.795.795 0 0 0 .312-.652Zm8.82-6.945v-2.402h-3.008v2.402h-1.232v2.089h1.232v4.794c0 .994.247 1.735.74 2.223.495.488 1.26.732 2.295.732.59 0 1.155-.087 1.696-.26v-2.15a4.415 4.415 0 0 1-.75.053c-.386 0-.645-.072-.776-.214-.131-.143-.197-.396-.197-.76v-4.418h1.59v-2.09h-1.59Zm9.222 9.66c-.107-.197-.202-.486-.285-.867-.554.697-1.327 1.045-2.321 1.045-.91 0-1.685-.274-2.321-.822-.637-.553-.956-1.246-.956-2.08 0-1.047.387-1.839 1.16-2.374.775-.536 1.9-.804 3.375-.804h.929v-.509c0-.886-.384-1.33-1.152-1.33-.714 0-1.071.351-1.071 1.054h-3.008c0-.935.395-1.694 1.187-2.277.797-.583 1.812-.875 3.044-.875s2.205.3 2.92.902c.713.601 1.08 1.425 1.097 2.473v4.276c.012.887.15 1.565.411 2.035v.152h-3.008Zm-1.883-1.965c.375 0 .684-.08.928-.24.25-.162.429-.343.536-.545v-1.545h-.875c-1.047 0-1.571.47-1.571 1.41 0 .274.092.498.276.67.185.167.42.25.706.25Z" fill="#000"/></svg>
